X: 171
T: A Sailor and a Farmer's Daughter
N:"Moderate"
B:O'Neill's 171
Z:Transcribed by henrik.norbeck@mailbox.swipnet.se
M:3/4
L:1/8
K:A
E AA|F2 GE AA|(~A>c) ee "~"f(e/>d/)|c>B AA (G/A/)(B/G/)|~(E>F) GE (G/A/)(G/A/)|
F2 (GE) AA|~A>c ee "~"f(e/>d/)|(c>B) (AB/>c/) AA|A2- A||
.c .d.e|(f>d B).B .c.d|(e>c A)(A/G/) F.A|d>c BA (G/A/)(B/G/)|"="~E>F {A}G(F/E/) AA|
F2 GE AA|(~A>c) (ea) (g/f/e/d/)|c>B .A(B/c/) AA|A2- A||


